dist/images/services-icons/holter.svg

<svg width="48" height="48" viewBox="0 0 48 48" fill="none" xmlns="http://www.w3.org/2000/svg">
<circle cx="24" cy="24" r="23.5" fill="#FCFAF7" stroke="#BDA37E"/>
<path d="M25.3125 22.334L24.3125 25.6673L25.3125 27.0007L26.3125 25.6673L25.3125 22.334Z" fill="#BDA37E"/>
<path fill-rule="evenodd" clip-rule="evenodd" d="M31.3158 19.7553C31.2339 19.7142 31.1417 19.6665 31.0413 19.6126C30.6456 19.4001 30.1142 19.0855 29.5787 18.679C28.5499 17.898 27.3151 16.6321 27.3151 14.9655C27.3151 13.4816 28.4379 12 30.1068 12C30.8818 12 31.5093 12.3091 31.9818 12.771C32.4542 12.3091 33.0817 12 33.8568 12C35.5258 12 36.6484 13.4818 36.6484 14.9655C36.6484 16.5805 35.4074 17.8475 34.3894 18.6343C33.8562 19.0464 33.3267 19.3708 32.9326 19.5915C32.8284 19.6499 32.7331 19.7013 32.6491 19.7455C32.6529 20.9079 32.6717 22.0179 32.6896 23.0687C32.7286 25.3719 32.763 27.3915 32.6232 29.0588C32.4114 31.5842 31.785 33.6109 29.9134 34.7071C28.0721 35.7857 25.3522 36.1909 23.0998 35.9169C21.969 35.7794 20.8898 35.4635 20.0736 34.9183C19.479 34.5211 19.0081 33.9875 18.7866 33.3176C17.4016 33.2545 16.0246 33.0018 14.9348 32.5499C13.7586 32.0623 12.6484 31.2164 12.6484 29.8931V16.7481H12.6504C12.6491 16.721 12.6484 16.6939 12.6484 16.6667C12.6484 14.8257 15.6332 13.3333 19.3151 13.3333C22.997 13.3333 25.9818 14.8257 25.9818 16.6667C25.9818 16.6939 25.9811 16.721 25.9798 16.7481H25.9818V20.7139C28.2433 21.0374 29.9818 22.9823 29.9818 25.3333C29.9818 27.6845 28.243 29.6297 25.9811 29.9529C25.9501 31.2961 24.8762 32.1465 23.6914 32.6286C22.7124 33.0271 21.5054 33.2475 20.2716 33.3127C20.405 33.4915 20.5854 33.6567 20.8142 33.8095C21.3946 34.1973 22.248 34.4702 23.2607 34.5933C25.2952 34.8408 27.706 34.4549 29.2395 33.5567C30.5138 32.8103 31.09 31.3863 31.2945 28.9474C31.4288 27.3457 31.3961 25.4393 31.3575 23.1887C31.3392 22.1229 31.3196 20.9797 31.3158 19.7553ZM30.1068 13.3333C29.3194 13.3333 28.6484 14.0639 28.6484 14.9655C28.6484 15.9617 29.4136 16.8797 30.3848 17.617C30.8494 17.9696 31.3179 18.2477 31.6722 18.438C31.7871 18.4997 31.8892 18.5518 31.9741 18.5937C32.0602 18.5491 32.164 18.4937 32.281 18.4282C32.6368 18.2289 33.1074 17.94 33.5741 17.5793C34.5561 16.8204 35.3151 15.9035 35.3151 14.9655C35.3151 14.064 34.6442 13.3333 33.8568 13.3333C33.3079 13.3333 32.8706 13.6387 32.5648 14.1902L31.9818 15.2416L31.3988 14.1902C31.0929 13.6387 30.6556 13.3333 30.1068 13.3333ZM19.3151 20C21.4959 20 23.4321 19.4765 24.6484 18.667V20.7139C22.3869 21.0374 20.6484 22.9823 20.6484 25.3333C20.6484 27.6837 22.386 29.6283 24.6468 29.9525C24.6173 30.4713 24.198 30.9829 23.1888 31.3937C22.1724 31.8073 20.7678 32.0157 19.3227 31.9992C19.1171 31.9969 18.9122 31.9899 18.709 31.9787V19.9864C18.9086 19.9954 19.1108 20 19.3151 20ZM24.6484 16.6667C24.6484 16.8101 24.4976 17.2988 23.4328 17.8311C22.4479 18.3236 20.994 18.6667 19.3151 18.6667C17.6362 18.6667 16.1823 18.3236 15.1973 17.8311C14.1327 17.2988 13.9818 16.8101 13.9818 16.6667C13.9818 16.5233 14.1327 16.0345 15.1973 15.5022C16.1823 15.0097 17.6362 14.6667 19.3151 14.6667C20.994 14.6667 22.4479 15.0097 23.4328 15.5022C24.4976 16.0345 24.6484 16.5233 24.6484 16.6667ZM25.3151 28.6667C27.156 28.6667 28.6484 27.1743 28.6484 25.3333C28.6484 23.4924 27.156 22 25.3151 22C23.4742 22 21.9818 23.4924 21.9818 25.3333C21.9818 27.1743 23.4742 28.6667 25.3151 28.6667Z" fill="#BDA37E"/>
<path d="M17.2892 19.962C15.6188 19.7585 14.771 19.1883 13.9141 18.6523L13.9142 30.1062C14.7896 31.1248 15.3525 31.5 17.2892 31.9021C17.2894 28.8214 17.2896 21.1832 17.2892 19.962Z" fill="#FCFAF7"/>
</svg>

<svg width="48" height="48" fill="none" xmlns="http://www.w3.org/2000/svg"><circle cx="24" cy="24" r="23.5" fill="#FCFAF7" stroke="#BDA37E"/><path d="M25.313 22.334l-1 3.333 1 1.334 1-1.334-1-3.333z" fill="#BDA37E"/><path fill-rule="evenodd" clip-rule="evenodd" d="M31.316 19.755a11.277 11.277 0 01-1.737-1.076c-1.03-.781-2.264-2.047-2.264-3.713 0-1.484 1.123-2.966 2.792-2.966.775 0 1.402.31 1.875.771A2.624 2.624 0 0133.857 12c1.669 0 2.791 1.482 2.791 2.966 0 1.615-1.24 2.882-2.259 3.668a12.025 12.025 0 01-1.74 1.111c.004 1.163.023 2.273.04 3.324.04 2.303.074 4.323-.066 5.99-.212 2.525-.838 4.552-2.71 5.648-1.84 1.079-4.56 1.484-6.813 1.21-1.131-.138-2.21-.453-3.026-.999-.595-.397-1.066-.93-1.287-1.6-1.385-.063-2.762-.316-3.852-.768-1.176-.488-2.287-1.334-2.287-2.657V16.748h.002a1.698 1.698 0 01-.002-.081c0-1.841 2.985-3.334 6.667-3.334s6.667 1.493 6.667 3.334c0 .027 0 .054-.002.081h.002v3.966a4.668 4.668 0 010 9.239c-.032 1.343-1.106 2.194-2.29 2.676-.98.398-2.187.619-3.42.684.133.178.313.344.542.496.58.388 1.434.661 2.447.784 2.034.248 4.445-.138 5.979-1.036 1.274-.747 1.85-2.17 2.055-4.61.134-1.601.101-3.508.063-5.758a238.985 238.985 0 01-.042-3.434zm-1.21-6.422c-.787 0-1.458.73-1.458 1.633 0 .996.766 1.914 1.737 2.651a9.96 9.96 0 001.59.977 10.799 10.799 0 001.6-1.015c.981-.759 1.74-1.676 1.74-2.614 0-.901-.67-1.632-1.458-1.632-.55 0-.986.306-1.292.857l-.583 1.052-.583-1.052c-.306-.551-.743-.857-1.292-.857zM19.317 20c2.18 0 4.116-.523 5.332-1.333v2.047a4.668 4.668 0 00-.001 9.239c-.03.518-.449 1.03-1.458 1.44-1.017.414-2.421.623-3.866.606-.206-.002-.41-.01-.614-.02V19.986c.2.01.402.014.606.014zm5.332-3.333c0 .143-.15.632-1.215 1.164-.985.493-2.439.836-4.118.836-1.679 0-3.133-.343-4.118-.836-1.064-.532-1.215-1.02-1.215-1.164 0-.144.15-.633 1.215-1.165.985-.492 2.44-.835 4.118-.835 1.679 0 3.133.343 4.118.835 1.065.533 1.215 1.021 1.215 1.165zm.667 12a3.333 3.333 0 100-6.667 3.333 3.333 0 000 6.667z" fill="#BDA37E"/><path d="M17.29 19.962c-1.671-.203-2.519-.774-3.376-1.31v11.454c.876 1.019 1.438 1.394 3.375 1.796v-11.94z" fill="#FCFAF7"/></svg>
